projects/oblique/icons/Bundeshaus.svg

<?xml version="1.0" encoding="UTF-8"?><svg id="a" xmlns="http://www.w3.org/2000/svg" viewBox="0 0 24 24"><path d="M19.33002,9.0338c-1.33002,0-2.40997.98004-2.40997,2.20001v1.31l-.18005-.04999-.57996-.16998v-3.67999c0-2.04004-1.47003-3.73004-3.41003-4.09003v-1.27997h-1.5v1.27997c-1.94.35999-3.40997,2.04999-3.40997,4.09003v3.67999l-.58002.16998-.15997.04999v-1.31c0-1.21997-1.09003-2.20001-2.42999-2.20001-1.33002,0-2.41003.98004-2.41003,2.20001v1.26001h-.01001v9.25h19.5v-7.75h.01001v-2.76001c0-1.21997-1.08997-2.20001-2.42999-2.20001ZM3.76001,11.23381c0-.38.41998-.70001.91003-.70001.5,0,.92999.32001.92999.70001v1.26001h-1.84003v-1.26001ZM6.62,20.24382h-2.87v-6.25h2.87v6.25ZM12,5.98381c1.21002,0,2.23004.81,2.54999,1.91003h-5.09998c.32001-1.10004,1.34003-1.91003,2.54999-1.91003ZM9.34003,9.39385h5.32001v2.47998l-2.66003-.78998-2.65997.78998v-2.47998ZM15.81,20.24382h-7.69v-6.44l3.88-1.15002,3.81,1.13v6.46002ZM20.25,20.24382h-2.94v-6.25h2.94v6.25ZM20.26001,12.49382h-1.83997v-1.26001c0-.38.41998-.70001.90997-.70001.5,0,.92999.32001.92999.70001v1.26001Z"/></svg>

<svg xmlns="http://www.w3.org/2000/svg" viewBox="0 0 24 24"><path d="M19.33,9.0338a2.30956,2.30956,0,0,0-2.41,2.2v1.31l-.18005-.05-.58-.17v-3.68a4.16476,4.16476,0,0,0-3.41-4.09v-1.28h-1.5v1.28a4.1647,4.1647,0,0,0-3.41,4.09v3.68l-.58.17-.16.05v-1.31a2.32166,2.32166,0,0,0-2.43-2.2,2.30961,2.30961,0,0,0-2.41,2.2v1.26H2.25v9.25h19.5v-7.75h.01v-2.76A2.32162,2.32162,0,0,0,19.33,9.0338Zm-15.57,2.2a.83922.83922,0,0,1,.91-.7c.5,0,.93.32.93.7v1.26H3.76Zm2.86,9.01H3.75v-6.25H6.62ZM12,5.98381a2.65767,2.65767,0,0,1,2.55,1.91H9.45A2.65778,2.65778,0,0,1,12,5.98381Zm-2.66,3.41h5.32v2.48l-2.66-.79-2.66.79Zm6.47,10.85H8.12v-6.44l3.88-1.15,3.81,1.13Zm4.44,0H17.31v-6.25h2.94Zm.01-7.75H18.42v-1.26a.8392.8392,0,0,1,.91-.7c.5,0,.93.32.93.7Z" fill="#171717"/></svg>
